icons/widgets/Overview.svg

<path
	d="M5.33325 10.6666H10.6666V5.33325H5.33325V10.6666ZM13.3333 26.6666H18.6666V21.3333H13.3333V26.6666ZM5.33325 26.6666H10.6666V21.3333H5.33325V26.6666ZM5.33325 18.6666H10.6666V13.3333H5.33325V18.6666ZM13.3333 18.6666H18.6666V13.3333H13.3333V18.6666ZM21.3333 5.33325V10.6666H26.6666V5.33325H21.3333ZM13.3333 10.6666H18.6666V5.33325H13.3333V10.6666ZM21.3333 18.6666H26.6666V13.3333H21.3333V18.6666ZM21.3333 26.6666H26.6666V21.3333H21.3333V26.6666Z"
	fill="currentColor" />

<path d="M5.333 10.667h5.334V5.333H5.333v5.334Zm8 16h5.334v-5.334h-5.334v5.334Zm-8 0h5.334v-5.334H5.333v5.334Zm0-8h5.334v-5.334H5.333v5.334Zm8 0h5.334v-5.334h-5.334v5.334Zm8-13.334v5.334h5.334V5.333h-5.334Zm-8 5.334h5.334V5.333h-5.334v5.334Zm8 8h5.334v-5.334h-5.334v5.334Zm0 8h5.334v-5.334h-5.334v5.334Z" fill="currentColor"/>
